X:40
T:John D. MacDougall's Reel
R:reel
C:Brenda Stubbert
O:Cape Breton Island
S:http://www.cranfordpub.com
D:Music All Around
Z:psc, (re-formatted,updated 9/19/04)
N:http://www.cranfordpub.com/stubbert
H:                                                        copyrights Stubbert Music, SOCAN
L:1/8
Q:333
M:C|
K:Edor
B,E E/E/E DEFD|E3 F GABc|d3 B ABdA|BdAF GEFD|
B,E E/E/E DEFD|E3 F GABc|defe dBAF|[1GEFD E2 ED:|[2GEFD E3 z||
|:Be e/e/e defd|e2 ef edBc|d3 e fgfe|dBAF DEFD|
[1Ee e/e/e defd|e2 ef edBc|defe dBAF|GEFD E3 z:|
[2B,E E/E/E DEFD|E3 F GABc|defe dBAF|GEFD E3 z|]
